public/control.svg

<svg width="121" height="125" viewBox="0 0 121 125" fill="none" xmlns="http://www.w3.org/2000/svg">
<g clip-path="url(#clip0_9_94106)">
<g clip-path="url(#clip1_9_94106)">
<path d="M24.1072 49.1515C22.86 49.9626 21.8222 51.0572 21.0786 52.3459C20.3349 53.6345 19.9065 55.0808 19.8282 56.5665L19.8223 113.121C19.8283 115.849 21.7423 116.954 24.1133 115.588L99.6202 71.9875C100.868 71.1746 101.906 70.0791 102.651 68.7897C103.396 67.5003 103.826 66.0534 103.907 64.5665V8.02153C103.907 5.28653 101.987 4.18552 99.6232 5.55052L24.1072 49.1515Z" fill="white"/>
<path d="M22.1947 117C21.6599 117.004 21.1336 116.866 20.6698 116.6C20.1048 116.223 19.6515 115.701 19.3575 115.089C19.0635 114.477 18.9396 113.796 18.9988 113.12L19.0047 56.5639C19.0786 54.9324 19.5431 53.3425 20.3593 51.9279C21.1754 50.5133 22.3193 49.3154 23.6947 48.4349L99.2068 4.83485C99.7434 4.40048 100.399 4.13897 101.087 4.08476C101.776 4.03056 102.464 4.18622 103.062 4.53124C103.66 4.87625 104.139 5.39441 104.437 6.01738C104.734 6.64035 104.836 7.33889 104.729 8.02086V64.5649C104.652 66.1976 104.185 67.788 103.367 69.2033C102.549 70.6186 101.405 71.8176 100.029 72.6999L24.5227 116.3C23.8211 116.732 23.0185 116.974 22.1947 117ZM101.537 5.79387C101.004 5.82062 100.488 5.98385 100.037 6.26787L24.5248 49.8678C23.4054 50.6088 22.4735 51.5998 21.8026 52.7625C21.1317 53.9252 20.7401 55.2279 20.6587 56.5679L20.6527 113.124C20.5467 113.512 20.5726 113.925 20.7264 114.297C20.8802 114.669 21.1532 114.98 21.5025 115.181C21.8518 115.381 22.2577 115.46 22.6566 115.405C23.0555 115.349 23.4249 115.163 23.7068 114.876L99.2127 71.2759C100.333 70.5332 101.266 69.5411 101.938 68.3774C102.61 67.2138 103.004 65.9101 103.088 64.5688V8.02385C103.135 7.63786 103.083 7.24613 102.936 6.88603C102.789 6.52593 102.553 6.2095 102.249 5.96687C102.031 5.84667 101.785 5.7866 101.537 5.79286V5.79387Z" fill="#005BEA"/>
<path d="M84.9624 60.9818L87.7774 58.8518L86.8634 56.7338C86.158 58.1166 85.5236 59.5345 84.9624 60.9818ZM84.0054 50.0938L78.4894 37.2578L38.1074 55.1578L49.2954 87.9799L70.8304 71.6798C69.4584 69.8028 68.9584 67.1478 70.5444 65.1668C72.3164 62.9438 74.9884 63.7438 76.6884 65.6538C78.3324 61.7158 82.9474 52.2378 84.0054 50.0938Z" fill="#005BEA"/>
<path d="M77.2318 48.5006C78.126 48.091 78.8869 47.4382 79.4277 46.6166C79.9684 45.7951 80.2672 44.8379 80.2898 43.8546C80.2898 41.9136 78.9178 40.8686 77.2318 41.5006C76.3376 41.9103 75.5767 42.5632 75.0359 43.3847C74.4952 44.2063 74.1965 45.1634 74.1738 46.1466C74.1738 48.0706 75.5458 49.1316 77.2318 48.5006ZM74.7318 50.9456L79.7318 49.0717V64.9276L74.7318 66.8007V50.9456Z" fill="white"/>
<path d="M72.2589 56.4984C72.3019 56.4984 72.3299 56.4715 72.3299 56.4195V52.3994C72.3305 52.3758 72.3241 52.3526 72.3115 52.3327C72.2988 52.3127 72.2805 52.297 72.2589 52.2874C72.2589 52.2874 71.6009 52.0145 69.6009 52.6245C68.8 52.8453 68.0206 53.1375 67.2719 53.4975C59.9839 56.9385 59.7129 63.4344 59.7129 63.7124V65.2715C59.7129 65.4625 59.7129 71.9955 67.2719 69.7345C68.0149 69.5255 69.4579 68.9155 69.6009 68.8615C70.6741 68.4515 71.6697 67.8617 72.5449 67.1175C72.5667 67.0991 72.5843 67.0763 72.5965 67.0506C72.6087 67.0249 72.6154 66.9969 72.6159 66.9685V63.2085C72.6159 63.1565 72.5869 63.1495 72.5589 63.1945C71.7201 64.0136 70.7296 64.6614 69.6429 65.1015C69.2561 65.322 68.8364 65.4793 68.3999 65.5675C65.0279 66.1375 64.8709 63.2165 64.8709 63.2165C64.8709 63.1645 64.8569 63.0834 64.8569 63.0484V61.9045C64.8539 61.8444 64.8586 61.7843 64.8709 61.7254C65.0014 60.6815 65.3932 59.6875 66.0101 58.8353C66.627 57.9831 67.449 57.3004 68.3999 56.8504L69.6429 56.3844C70.5102 56.1964 71.4113 56.2357 72.2589 56.4984Z" fill="white"/>
<path d="M45.8223 77.5783C45.8223 77.6303 45.8512 77.6543 45.8932 77.6383L50.7663 75.8134C50.7882 75.8037 50.8067 75.7877 50.8194 75.7673C50.8321 75.747 50.8383 75.7233 50.8373 75.6993V71.0903C50.8363 71.0665 50.8426 71.043 50.8553 71.0228C50.868 71.0027 50.8864 70.9868 50.9083 70.9774C50.9083 70.9774 58.6993 68.7344 58.6993 62.4094C58.6993 57.4014 53.8123 58.6954 52.2123 59.3814L45.8963 61.7484C45.8744 61.7578 45.8559 61.7737 45.8433 61.7938C45.8306 61.814 45.8243 61.8375 45.8253 61.8613L45.8223 77.5783ZM50.7523 67.5173V63.3753L51.9523 62.9254C51.9523 62.9254 53.6813 62.3644 53.8243 63.7484C53.8525 64.0307 53.8525 64.3151 53.8243 64.5974C53.7565 65.111 53.5633 65.6001 53.2617 66.0214C52.9602 66.4428 52.5596 66.7834 52.0953 67.0133L50.7523 67.5173Z" fill="white"/>
<path d="M77.3742 73.4604C77.8351 73.312 78.2556 73.0595 78.6032 72.7224C80.3752 70.9314 86.3622 50.9614 92.6782 43.1364C92.7242 43.0809 92.7628 43.0197 92.7932 42.9544C92.8184 42.9064 92.833 42.8536 92.8362 42.7994C92.8362 42.7994 92.8363 42.4354 91.9073 42.7834C86.2923 44.6974 80.4472 61.1835 77.3752 67.9835C77.3332 68.0695 77.1322 68.0754 77.1322 68.0754C77.1322 68.0754 75.0752 65.9004 73.2882 65.4434C73.1314 65.4354 72.975 65.4642 72.8313 65.5275C72.2906 65.8149 71.8256 66.226 71.4742 66.7274C71.1199 67.255 70.963 67.8906 71.0312 68.5225C71.0373 68.6545 71.0664 68.7844 71.1172 68.9064C72.2401 70.6244 73.6125 72.1656 75.1892 73.4794C75.4312 73.6174 75.8172 74.0444 77.3742 73.4604Z" fill="#005BEA"/>
</g>
</g>
<defs>
<clipPath id="clip0_9_94106">
<rect width="121" height="125" fill="white"/>
</clipPath>
<clipPath id="clip1_9_94106">
<rect width="86" height="125" fill="white" transform="translate(19 -8)"/>
</clipPath>
</defs>
</svg>

<svg xmlns="http://www.w3.org/2000/svg" width="121" height="125" fill="none" viewBox="0 0 121 125"><g clip-path="url(#a)"><g clip-path="url(#b)"><path fill="#fff" d="M24.107 49.152a9.44 9.44 0 0 0-4.279 7.414l-.006 56.555c.006 2.728 1.92 3.833 4.291 2.467l75.507-43.6a9.47 9.47 0 0 0 4.287-7.421V8.022c0-2.735-1.92-3.836-4.284-2.471z"/><path fill="#005bea" d="M22.195 117a3 3 0 0 1-1.525-.4 3.79 3.79 0 0 1-1.671-3.48l.006-56.556a10.2 10.2 0 0 1 4.69-8.13l75.512-43.6a3.415 3.415 0 0 1 5.522 3.187v56.544a10.23 10.23 0 0 1-4.7 8.135l-75.506 43.6a4.7 4.7 0 0 1-2.328.7M101.537 5.794a3.1 3.1 0 0 0-1.5.474l-75.512 43.6a8.66 8.66 0 0 0-3.866 6.7l-.006 56.556a1.818 1.818 0 0 0 3.054 1.752l75.506-43.6a8.7 8.7 0 0 0 3.875-6.707V8.024a2.28 2.28 0 0 0-.839-2.057 1.4 1.4 0 0 0-.712-.174"/><path fill="#005bea" d="m84.962 60.982 2.815-2.13-.914-2.118a46 46 0 0 0-1.9 4.248m-.957-10.888L78.49 37.258l-40.382 17.9L49.295 87.98l21.535-16.3c-1.372-1.877-1.872-4.532-.286-6.513 1.772-2.223 4.444-1.423 6.144.487 1.644-3.938 6.26-13.416 7.317-15.56"/><path fill="#fff" d="M77.232 48.5a5.24 5.24 0 0 0 3.058-4.645c0-1.941-1.372-2.986-3.058-2.354a5.24 5.24 0 0 0-3.058 4.646c0 1.924 1.372 2.985 3.058 2.354m-2.5 2.446 5-1.874v15.856l-5 1.873zM72.259 56.498c.043 0 .07-.026.07-.078V52.4a.12.12 0 0 0-.07-.113s-.658-.273-2.658.337q-1.203.333-2.33.874c-7.287 3.44-7.558 9.936-7.558 10.214v1.56c0 .19 0 6.724 7.559 4.462.743-.209 2.186-.819 2.329-.872 1.073-.41 2.069-1 2.944-1.744a.2.2 0 0 0 .07-.15v-3.76c0-.051-.028-.058-.056-.014a9 9 0 0 1-2.916 1.907c-.387.221-.807.378-1.243.466-3.372.57-3.53-2.35-3.53-2.35 0-.053-.013-.134-.013-.169v-1.144a.7.7 0 0 1 .014-.179A6.25 6.25 0 0 1 68.4 56.85l1.243-.466a5.15 5.15 0 0 1 2.616.114M45.822 77.578c0 .052.03.076.071.06l4.873-1.825a.12.12 0 0 0 .071-.114V71.09a.12.12 0 0 1 .071-.113S58.7 68.734 58.7 62.41c0-5.008-4.887-3.714-6.487-3.028l-6.316 2.367a.12.12 0 0 0-.07.113zm4.93-10.06v-4.143l1.2-.45s1.73-.56 1.872.823a4.3 4.3 0 0 1 0 .85 3.16 3.16 0 0 1-1.729 2.415z"/><path fill="#005bea" d="M77.374 73.46c.461-.148.882-.4 1.23-.738 1.771-1.79 7.758-21.76 14.074-29.586a.8.8 0 0 0 .115-.182q.038-.072.043-.155s0-.364-.929-.016c-5.615 1.914-11.46 18.4-14.532 25.2-.042.087-.243.092-.243.092s-2.057-2.175-3.844-2.632a1 1 0 0 0-.457.085 3.9 3.9 0 0 0-1.357 1.2 2.7 2.7 0 0 0-.443 1.794q.01.2.086.384a20.7 20.7 0 0 0 4.072 4.573c.242.138.628.565 2.185-.019"/></g></g><defs><clipPath id="a"><path fill="#fff" d="M0 0h121v125H0z"/></clipPath><clipPath id="b"><path fill="#fff" d="M19-8h86v125H19z"/></clipPath></defs></svg>
